!!!COA1: des Prez, Josquin
!!!CDT1: ~1450-1521/08/27
!!!COM2: de la Rue, Pierre
!!!CDT2: ~1452///-1518/11/20
!!!OTL: Pleni [from the Missa Ave Maria]
!!!AGN: Mass; Sanctus; Pleni
!!!SCT: Jos9915
!!!SCA: Jos9915
!!!ONB: Pleni section of Rue1004d
!!!voices: 4
**kern	**kern	**kern	**kern
*staff4	*staff3	*staff2	*staff1
*Ivox	*Ivox	*Ivox	*Ivox
*I"Bassus	*I"Tenor	*I"Contra	*I"Discantus
*clefF4	*clefGv2	*clefGv2	*clefG2
*k[]	*k[]	*k[]	*k[]
*M2/1	*M2/1	*M2/1	*M2/1
*met(C2)	*met(C2)	*met(C2)	*met(C2)
!!section: Pleni sunt celi
!	!	!	!LO:TX:Z=10:t=from from the Missa Ave Maria surely by La Rue
0r	0r	1r	1a
.	.	[1a	4a
.	.	.	4b
.	.	.	4cc
.	.	.	4dd
=50.	=50.	=50.	=50.
0r	0r	1a]	1ee
.	.	1a	2cc
.	.	.	[2ff
=51	=51	=51	=51
0r	0r	1g	2ff]
.	.	.	1ee
.	.	1f	.
.	.	.	2dd
=52.	=52.	=52.	=52.
0r	0r	0e	2cc
.	.	.	1b
.	.	.	[2ee
=53	=53	=53	=53
0r	0r	0a	2ee]
.	.	.	1cc
.	.	.	[2ff
=54.	=54.	=54.	=54.
0r	0r	1g	2ff]
.	.	.	1ee
.	.	1f	.
.	.	.	2dd
=55	=55	=55	=55
0r	0r	1.e	2cc
.	.	.	2.b
.	.	.	4e
.	.	2A	[2ee
=56.	=56.	=56.	=56.
0r	0r	0a	2ee]
.	.	.	2dd
.	.	.	2cc
.	.	.	2a
=57	=57	=57	=57
1r	0r	2.g	1b
.	.	4e	.
[1A	.	2f	1r
.	.	[2e	.
=58.	=58.	=58.	=58.
1A]	0r	2e]	0r
.	.	4A	.
.	.	4B	.
[1A	.	4c	.
.	.	4d	.
.	.	2e	.
=59	=59	=59	=59
1A]	0r	2c	0r
.	.	1f	.
1G	.	.	.
.	.	[2e	.
=60.	=60.	=60.	=60.
1F	0r	2e]	0r
.	.	2d	.
[1E	.	2c	.
.	.	[2B	.
=61	=61	=61	=61
1E]	0r	2B]	1r
.	.	2e	.
1A	.	2c	1cc
.	.	[2f	.
=62.	=62.	=62.	=62.
1G	0r	2f]	2b
.	.	1e	2g
1F	.	.	2a
.	.	2d	2f
=63	=63	=63	=63
0E	0r	2c	2g
.	.	4B	2cc
.	.	4A	.
.	.	2B	2b
.	.	2e	2g
=64.	=64.	=64.	=64.
1A	0r	2c	2a
.	.	2f	2f
1G	.	2e	2g
.	.	2d	[2b
=65	=65	=65	=65
1F	0r	4d	2b]
.	.	4c	.
.	.	4B	1a
.	.	4A	.
1E	.	1B	.
.	.	.	2g#i
=66.	=66.	=66.	=66.
[0A	0r	1A	0a
.	.	2r	.
.	.	2e	.
=67	=67	=67	=67
0A]	0r	2c	0r
.	.	1f	.
.	.	[2e	.
=68.	=68.	=68.	=68.
0r	0r	2e]	2r
.	.	1e	2ee
.	.	.	2cc
.	.	2d	[2ff
=69	=69	=69	=69
1A	0r	2.c	2ff]
.	.	.	1ee
.	.	4A	.
2G	.	2B	.
2F	.	2A	2dd
=70.	=70.	=70.	=70.
0E	0r	1.e	2cc
.	.	.	1b
.	.	2c	2ee
=71	=71	=71	=71
2r	0r	0f	2cc
2A	.	.	2.ff
2F	.	.	.
.	.	.	4ee
[2B-i	.	.	4dd
.	.	.	4cc
=72.	=72.	=72.	=72.
2B-]	0r	2r	2dd
2.A	.	1f	2cc
.	.	.	2a
4G	.	.	.
2G	.	[2e	[2ee
=73	=73	=73	=73
1A	0r	2e]	2ee]
.	.	1e	1cc
1F	.	.	.
.	.	2d	[2ff
=74.	=74.	=74.	=74.
2E	0r	2e	2ff]
2C	.	2g	1ee
1D	.	1f	.
.	.	.	2dd
=75	=75	=75	=75
2r	0r	1e	2ee
2A	.	.	2cc
2F	.	1r	2.ff
[2B-i	.	.	.
.	.	.	4ee
=76.	=76.	=76.	=76.
2B-]	0r	2r	2dd
1A	.	2e	1cc
.	.	2c	.
[2A	.	[2f	[2cc
=77	=77	=77	=77
4A]	0r	4f]	4cc]
4G	.	4e	4b
2G	.	1e	2b
2A	.	.	2cc
4G	.	2d	4b
4F	.	.	4a
=78.	=78.	=78.	=78.
0E	0r	2e	0g
.	.	4d	.
.	.	4c	.
.	.	2B	.
.	.	2e	.
=79	=79	=79	=79
2A	0r	2c	0r
2F	.	1f	.
1B-i	.	.	.
.	.	4e	.
.	.	4d	.
=80.	=80.	=80.	=80.
1A	0r	2f	2r
.	.	2.e	2ee
[1A	.	.	2cc
.	.	4d	.
.	.	4c	[2ff
.	.	4B	.
=81	=81	=81	=81
1A]	0r	2A	2ff]
.	.	2c	2.ee
1G	.	1B	.
.	.	.	4dd
.	.	.	2b
=82.	=82.	=82.	=82.
0A	0r	2r	2a
.	.	2e	1cc
.	.	2c	.
.	.	[2f	4b
.	.	.	4a
=83	=83	=83	=83
2r	0r	2f]	2cc
2E	.	2.e	1g
2C	.	.	.
.	.	4d	.
[2F	.	4c	[2a
.	.	4B	.
=84.	=84.	=84.	=84.
2F]	0r	2A	4a]
.	.	.	4g
2.E	.	2g	2e
.	.	1a	2.f
4D	.	.	.
2D	.	.	.
.	.	.	4g
=85	=85	=85	=85
2E	0r	2g	1e
2C	.	2e	.
1D	.	2.f	2r
.	.	.	2dd
.	.	4g	.
=86.	=86.	=86.	=86.
1C	0r	2e	1ee
.	.	2a	.
2r	.	2f	2.dd
2G	.	[2b-	.
.	.	.	4b
=87	=87	=87	=87
1A	0r	2b-]	1cc
.	.	1a	.
2G	.	.	2b
2E	.	2g	2ee
=88.	=88.	=88.	=88.
2F	0r	1a	2cc
2D	.	.	1ff
2E	.	2g	.
2C	.	2e	[2ee
=89	=89	=89	=89
1D	0r	1f	2ee]
.	.	.	2dd
2r	.	[1e	2cc
2E	.	.	2b
=90.	=90.	=90.	=90.
2C	0r	2e]	2.cc
1F	.	2c	.
.	.	.	4b
.	.	2d	2a
[2E	.	2e	4g
.	.	.	4f
=91	=91	=91	=91
2E]	0r	2c	2e
2D	.	2d	1a
1E	.	1B	.
.	.	.	2g
=92.	=92.	=92.	=92.
2r	0r	2A	2a
2G	.	2e	2b
2A	.	2c	2cc
2B	.	[2f	4dd
.	.	.	4cc
=93	=93	=93	=93
2.c	0r	4f]	4b
.	.	4e	4a
.	.	1e	1a
4d	.	.	.
1B	.	.	.
.	.	2d	2g#i
=94.	=94.	=94.	=94.
0Al	0r	0el	0al
=95||	=95||	=95||	=95||
*-	*-	*-	*-
!!!RDF**kern: l=long note in original notation
!!!RDF**kern: i=editorial accidental
!!!ENC: Chris Gage 12-04-2012
!!!END: 2013/05/24/
!!!EED: Jesse Rodin
!!!EEV: 2020/07/09/
!!attribution-level@Jos: 4b (almost certainly by another composer [double question mark])
!!attribution-level@Rue: 1 (secure)
!!!ONB: Translated from MusicXML and edited on 2013/07/19/ by Craig Sapp
!!muse2ps: T^@{OTL}^C^@{COA1}\nFacultad organica (1626)^i2I150v85,85,85,150Q16c70
